X:1
T:Perche tu lasci d'amor
T:Giovanni Antonio Rigatti
T:Source : Musiche diverse a voce sola---Venetia---B.Magni---1641. Editor : André Vierendeels (28/12/16).
T:Perche tu lasci d'amor
T:©
T:©
T:©
C:Giovanni Antonio Rigatti
Z:©
%%score 1 2
L:1/8
Q:1/4=105
M:6/4
K:C
V:1 treble nm="Soprano" snm="S"
V:2 bass nm="MusicXML Part"
V:1
 z2 G2 A2 B4 d2 | c4 B2 B6 | A6 z2 G2 F2 | E2 ^F2 G2 A4 A/B/c | B2 B2 z2 z2 e2 d2 | %5
w: Per- che las- ci|tu d'a- mor|mi o bel-|lis- * si ma- * * *|Clo- ri, o bel-|
w: Che nul gio- va'es-|ser co- stan-|te, à chi|bra- ma il mio ma- * *|ti- re, à chi|
w: Io mo- ro cer-|to mia vi-|ta, se tà|(las- so) m'ab- ban- do- * *|* ni se tà|
 c4 B2 B4 A/B/c | B2 B2 z2 z6 | z2 e2 ^f2 g4 c2 | d4 c2 e4 d2 | z2 c2 B2 A2 B2 c2 | %10
w: lis- si- ma mia _ _|Clo- ri,|per- che vuoi tu'ab-|ban- do- nar mi,|sul piu bel _ de|
w: bra- ma'il mio mar- * *|ti- re,|che mi vai es-|ser a- man- te|per do- ver ogn' hor|
w: (las- so) m'ab- ban- * *|do- ni,|dhè mio ben ti|chie- do al- ta|è l'es- sai tu noi|
 d4 d/e/f e3 f de | c3 d Bc A2 A2 fe | d4 c2 d4 d/e/f |[M:3/4] e4 e2 :: z2 c2 G2 | %15
w: no- stri'A- * * mo- * * *|* * * * * ri, sul piu|bel de no- stri'A- * *|mo- ri,|co- si|
w: mo- ri- * * * * * *|* * * * * re, per do-|ver ogn' hor mo- * *|ri- re,|co- si|
w: per- do- * * * * * *|* * * * * na, è l'es-|sai tu noi per- * *|do- na,|co- si|
[M:6/4] A3 A A2 z2 d2 A2 | B4 B2 z2 B2 B2 |[M:4/4] B2 BB BBBB | B3 c/d/ B4 | %19
w: per- fi- da è cru-|de- le vuoi tra-|dir, vuoi tra- dir va tuo fe-|de- * * le,|
w: ri- gi- da è spie-|ta- ta da me|sprez', da me sprez- zi'es- ser a-|ma- * * ra,|
w: mi- se- ro in- fe-|li- ce, il go-|det- t'in- go- det- ti l'in- qua|mi- li- * ce,|
[M:6/4]"^Presto" z2 B2 ^F2 G4 G2 | A4 d2 B2 d2 A2 | B4 ^c2 d4 e2 | ^f2 ^F2 G2 A2 A2 B2 | %23
w: fo- ra mi- glio,|per me'as- sai, fo- ra|me- glio, per me'as-|sai, non t'ha- ver, non t'ha-|
w: ||||
w: ||||
 ^c4 d2 e2 ^f4 | e6 d2 D2 E2 | ^F2 F2 G2 A2 B2 c2 | d4 c2 c4 B2 | e4 d2 c4 B2 | A6 G6 :| %29
w: ver ve- du- ta|ma- i, non t'ha-|ver, non t'ha- ver, non t'ha-|ver ve- du- ta,|ma- i, ma- i,|ma- i|
w: ||||||
w: ||||||
V:2
"^BC" G,4 ^F,2 G,2 B,,4 | C,2 D,4 G,,2 B,,2 ^C,2 | D,3 E, ^F,2 G,2 B,,4 | C,4 B,,2 C,2 D,4 | %4
 G,,4 ^F,2 E,4 B,,2 | C,2 D,2 E,2 C,2 D,4 | G,,2 G,2 F,2 E,3 F, D,E, | C,4 D,2 E,4 A,2 | %8
 F,2 G,4 C,4 B,,2 | A,,4 G,,2 F,,4 A,,2 | F,,2 G,,4 C,4 B,,2 | A,,4 G,2 F,6 | G,4 A,2 F,2 G,4 | %13
[M:3/4] C,6 :: E,6 |[M:6/4] F,6 ^F,6 | G,6 G,4 F,2 |[M:4/4] E,2 D,2 C,2 B,,2 |"^#" C,4 B,,4 | %19
[M:6/4] B,,6 E,6 | ^F,6 G,4 F,2 | G,4 A,2 B,,4 ^C,2 | D,4 E,2 ^F,4 G,2 | A,,4 B,,2 ^C,2 D,2 G,,2 | %24
 A,,6 D,4 ^C,2 | D,4 E,2 ^F,4 E,2 | D,6 ^F,4 G,2 | C,6 C,6 | D,6 G,,6 :| %29

